X: 1249
T: Kerpiç Kerpiç Üstüne
C: Yusuf Tapan
O: Turkey
F: http://compmusic.upf.edu/node/140
N: muhayyer--turku--curcuna--kerpic_kerpic--diyarbakir
N: makam= muhayyer
N: form= turku
N: usul= curcuna = 10/8
M: 10/8
L: 1/16
K: C _2/4B ^3/4f  
Q: 1/4=192
%%MIDI tuningsystem comma53
z4 z2f4g4a6  | a6a4a4g4f2  | a6a4g2 f2e4d2  | \
w:  Ker piç  ker  |  pic_ üs tü ne   |  kur dum  bi *  na  | 
d4 z2f4g4a6  | 
w:  yı   Ker piç  ker  | 
a6a4a4g4f2  | a6a4g2 f2e4d2  | d4 z2c4d4e6  | \
w:  pic_ üs tü ne   |  kur dum  bi *  na  |  yı   Bi na yı   | 
e6e4e4d4z2  | 
w:  ku rar_ i ken   | 
g4 d2d4d4c4B2  | B4 z2B4c4d6  | d2c2 d2d4d4c4B2  | \
w:  gör *  düm  Ley lâ  |  yı   Bi na yı   |  ku *  *  rar_ i ken   | 
c2d2 B2c4c2 B2B4A2  | 
w:  gör *  *  düm  Ley *  lâ  | 
A14z4z2  | z4 z2f4g4a6  | a6a4a4g4f2  | \
w:  yı    |  Ley lâ  ba  |  şı ma  aç tı   | 
a6a4g2 f2e4d2  | d4 z2f4g4a6  | 
w:  tür lü  be *  lâ  |  yı   Ley lâ  ba  | 
a6a4a4g4f2  | a6a4g2 f2e4d2  | d4 z2c4d4e6  | \
w:  şı ma  aç tı   |  tür lü  be *  lâ  |  yı   Ah  Ley lâ   | 
e6e4e4d4z2  | 
w:  Ley lâ  Ley lâ   | 
g4 d2d4d4c4B2  | B4 z2B4c4d6  | d2c2 d2d4d4c4B2  | \
w:  et *  me  bu  na  |  zı   Gel  ba rı  |  şa *  *  lım  ba ban   | 
c2d2 B2c4c2 B2B4A2  | 
w:  kıy *  *  sın  ni *  kâ  | 
A4 z2A4A2 B2c6  | c2d2 B2c4c2 B2B4A2  | \
w:  hı   Gel  ba *  rı  |  şa *  *  lım  ba *  ban   | 
c2d2 B2c4c2 B2B4A2  | 
w:  kıy *  *  sın  ni *  kâ  | 
A14z4z2  | z4 z2f4g4a6  | a6a4a4g4f2  | \
w:  hı    |  Ker piç  ker  |  pic_ üs tü ne   | 
a6a4g2 f2e4d2  | d4 z2f4g4a6  | 
w:  kur dum  bi *  na  |  yı   Ker piç  ker  | 
a6a4a4g4f2  | a6a4g2 f2e4d2  | d4 z2c4d4e6  | \
w:  pic_ üs tü ne   |  kur dum  bi *  na  |  yı   Bi na yı   | 
e6e4e4d4z2  | 
w:  ku rar_ i ken   | 
g4 d2d4d4c4B2  | B4 z2B4c4d6  | d2c2 d2d4d4c4B2  | \
w:  gör *  düm  Ley lâ  |  yı   Bi na yı   |  ku *  *  rar_ i ken   | 
c2d2 B2c4c2 B2B4A2  | 
w:  gör *  *  düm  Ley *  lâ  | 
A14z4z2  | z4 z2f4g4a6  | a6a4a4g4f2  | \
w:  yı    |  Ley lâ  ba  |  şı ma  aç tı   | 
a6a4g2 f2e4d2  | d4 z2f4g4a6  | 
w:  tür lü  be *  lâ  |  yı   Ley lâ  ba  | 
a6a4a4g4f2  | a6a4g2 f2e4d2  | d4 z2c4d4e6  | \
w:  şı ma  aç tı   |  tür lü  be *  lâ  |  yı   Ah  Ley lâ   | 
e6e4e4d4z2  | 
w:  Ley lâ  Ley lâ   | 
g4 d2d4d4c4B2  | B4 z2B4c4d6  | d2c2 d2d4d4c4B2  | \
w:  et *  me  bu  na  |  zı   Gel  ba rı  |  şa *  *  lım  ba ban   | 
c2d2 B2c4c2 B2B4A2  | 
w:  kıy *  *  sın  ni *  kâ  | 
A4 z2A4A2 B2c6  | c2d2 B2c4c2 B2B4A2  | \
w:  hı   Gel  ba *  rı  |  şa *  *  lım  ba *  ban   | 
c2d2 B2c4c2 B2B4A2  | 
w:  kıy *  *  sın  ni *  kâ  | 
A14z4z2  | |


